Numix-GalliumOS/64/mimetypes/application-vnd.oasis.opendocument.image-template.svg

<svg xmlns="http://www.w3.org/2000/svg" xmlns:xlink="http://www.w3.org/1999/xlink" width="64px" height="64px" viewBox="0 0 64 64" version="1.1">
<g id="surface1">
<path style=" stroke:none;fill-rule:nonzero;fill:rgb(92.941176%,68.627451%,0.784314%);fill-opacity:1;" d="M 10.6875 0 C 9.3125 0 8 1.378906 8 2.8125 L 8 61.1875 C 8 62.539062 9.390625 64 10.6875 64 L 53.3125 64 C 54.609375 64 56 62.539062 56 61.1875 L 56 2.75 C 56 1.402344 54.597656 0 53.25 0 Z M 10.6875 0 "/>
<path style=" stroke:none;fill-rule:nonzero;fill:rgb(0%,0%,0%);fill-opacity:0.196078;" d="M 8 48 L 8 61.335938 C 8 62.632812 9.375 64 10.664062 64 L 53.335938 64 C 54.625 64 56 62.632812 56 61.335938 L 56 48 Z M 8 48 "/>
<path style=" stroke:none;fill-rule:nonzero;fill:rgb(100%,100%,100%);fill-opacity:1;" d="M 20 42 L 20 18 L 44 18 L 44 42 L 30 42 L 30 30 L 36 30 L 36 34 L 34 34 L 34 38 L 40 38 L 40 22 L 24 22 L 24 42 Z M 20 42 "/>
<path style=" stroke:none;fill-rule:nonzero;fill:rgb(100%,100%,100%);fill-opacity:1;" d="M 20.296875 56.585938 C 20.296875 57.113281 20.3125 57.609375 20.355469 58.070312 C 20.40625 58.523438 20.503906 58.921875 20.636719 59.257812 C 20.777344 59.597656 20.976562 59.863281 21.230469 60.058594 C 21.476562 60.257812 21.816406 60.355469 22.238281 60.355469 C 22.652344 60.355469 22.980469 60.257812 23.238281 60.058594 C 23.5 59.863281 23.699219 59.597656 23.832031 59.257812 C 23.972656 58.902344 24.070312 58.507812 24.105469 58.054688 C 24.160156 57.601562 24.1875 57.113281 24.1875 56.585938 C 24.1875 56.0625 24.160156 55.578125 24.105469 55.121094 C 24.070312 54.652344 23.972656 54.253906 23.832031 53.917969 C 23.699219 53.578125 23.5 53.316406 23.253906 53.117188 C 23.003906 52.917969 22.667969 52.820312 22.238281 52.820312 C 21.816406 52.820312 21.476562 52.917969 21.230469 53.117188 C 20.976562 53.316406 20.777344 53.585938 20.636719 53.933594 C 20.503906 54.273438 20.40625 54.667969 20.355469 55.121094 C 20.3125 55.578125 20.296875 56.0625 20.296875 56.585938 M 17.8125 56.585938 C 17.8125 54.726562 18.207031 53.324219 18.984375 52.382812 C 19.769531 51.421875 20.851562 50.953125 22.238281 50.953125 C 23.683594 50.953125 24.78125 51.421875 25.53125 52.382812 C 26.292969 53.324219 26.664062 54.726562 26.664062 56.585938 C 26.664062 58.449219 26.285156 59.855469 25.515625 60.8125 C 24.746094 61.753906 23.667969 62.222656 22.261719 62.222656 C 20.816406 62.222656 19.710938 61.753906 18.945312 60.8125 C 18.191406 59.855469 17.8125 58.449219 17.8125 56.585938 "/>
<path style=" stroke:none;fill-rule:nonzero;fill:rgb(100%,100%,100%);fill-opacity:1;" d="M 36.628906 51.191406 L 36.628906 52.976562 L 33.390625 52.976562 L 33.390625 62 L 30.933594 62 L 30.933594 52.976562 L 27.695312 52.976562 L 27.695312 51.191406 L 36.628906 51.191406 "/>
<path style=" stroke:none;fill-rule:nonzero;fill:rgb(100%,100%,100%);fill-opacity:1;" d="M 38.199219 62 L 38.199219 60.21875 L 40.871094 60.21875 L 40.871094 52.976562 L 38.199219 52.976562 L 38.199219 51.191406 L 46 51.191406 L 46 52.976562 L 43.339844 52.976562 L 43.339844 60.21875 L 46 60.21875 L 46 62 L 38.199219 62 "/>
</g>
</svg>

<svg xmlns="http://www.w3.org/2000/svg" viewBox="0 0 64 64">
 <g>
  <path d="m 10.688 0 c -1.375 0 -2.688 1.379 -2.688 2.813 l 0 58.38 c 0 1.352 1.391 2.813 2.688 2.813 l 42.625 0 c 1.297 0 2.688 -1.461 2.688 -2.813 l 0 -58.44 c 0 -1.348 -1.402 -2.75 -2.75 -2.75 m -42.563 0" style="fill:#ecaf02;fill-opacity:1;stroke:none;fill-rule:nonzero"/>
  <path d="m 8 48 l 0 13.336 c 0 1.297 1.375 2.664 2.664 2.664 l 42.672 0 c 1.289 0 2.664 -1.367 2.664 -2.664 l 0 -13.336 m -48 0" style="fill:#000;fill-opacity:0.196;stroke:none;fill-rule:nonzero"/>
  <path d="m 20 42 l 0 -24 l 24 0 l 0 24 l -14 0 l 0 -12 l 6 0 l 0 4 l -2 0 l 0 4 l 6 0 l 0 -16 l -16 0 l 0 20 m -4 0" style="fill:#fff;fill-opacity:1;stroke:none;fill-rule:nonzero"/>
  <path d="m 20.297 56.59 c 0 0.527 0.016 1.023 0.059 1.484 c 0.051 0.453 0.148 0.852 0.281 1.188 c 0.141 0.34 0.34 0.605 0.594 0.801 c 0.246 0.199 0.586 0.297 1.01 0.297 c 0.414 0 0.742 -0.098 1 -0.297 c 0.262 -0.195 0.461 -0.461 0.594 -0.801 c 0.141 -0.355 0.238 -0.75 0.273 -1.203 c 0.055 -0.453 0.082 -0.941 0.082 -1.469 c 0 -0.523 -0.027 -1.01 -0.082 -1.465 c -0.035 -0.469 -0.133 -0.867 -0.273 -1.203 c -0.133 -0.34 -0.332 -0.602 -0.578 -0.801 c -0.25 -0.199 -0.586 -0.297 -1.016 -0.297 c -0.422 0 -0.762 0.098 -1.01 0.297 c -0.254 0.199 -0.453 0.469 -0.594 0.816 c -0.133 0.34 -0.23 0.734 -0.281 1.188 c -0.043 0.457 -0.059 0.941 -0.059 1.465 m -2.484 0 c 0 -1.859 0.395 -3.262 1.172 -4.203 c 0.785 -0.961 1.867 -1.43 3.254 -1.43 c 1.445 0 2.543 0.469 3.293 1.43 c 0.762 0.941 1.133 2.344 1.133 4.203 c 0 1.863 -0.379 3.27 -1.148 4.227 c -0.77 0.941 -1.848 1.41 -3.254 1.41 c -1.445 0 -2.551 -0.469 -3.316 -1.41 c -0.754 -0.957 -1.133 -2.363 -1.133 -4.227" style="fill:#fff;fill-opacity:1;stroke:none;fill-rule:nonzero"/>
  <path d="m 36.629 51.19 l 0 1.785 l -3.238 0 l 0 9.02 l -2.457 0 l 0 -9.02 l -3.238 0 l 0 -1.785 l 8.934 0" style="fill:#fff;fill-opacity:1;stroke:none;fill-rule:nonzero"/>
  <path d="m 38.2 62 l 0 -1.781 l 2.672 0 l 0 -7.242 l -2.672 0 l 0 -1.785 l 7.801 0 l 0 1.785 l -2.66 0 l 0 7.242 l 2.66 0 l 0 1.781 l -7.801 0" style="fill:#fff;fill-opacity:1;stroke:none;fill-rule:nonzero"/>
 </g>
</svg>
